X: 79
T: No_18_Song_of_Brown_Buzzard_After_Removing_His_Scalp.krn
N: Derived from No_18_Song_of_Brown_Buzzard_After_Removing_His_Scalp.krn
%%abc-version 2.0
%%abcx-abcm2ps-target-version 5.9.1 (29 Sep 2008)
%%abc-creator hum2abc beta
%%abcx-conversion-date 2019/03/15 08:37:56
%%humdrum-veritas 4095936431
%%humdrum-veritas-data 1641935852
%%linebreak <none>
%%barnumbers 0
L: 1/16
M: 2/4
K: A clef=bass
C [I:setbarnb 1]| 
C8 ||  
[M:3/4]B,B,2A, A,3F, A,3B, ||  
[M:2/4]B,8 ||  
[M:3/4]A,A,2F, F,3E,F,4 ||  
[M:2/4]F,2F,F,F,4 | 
F,F,2E, E,3C, ||  
[M:3/4]F,3F,F,4z4 ||  
[M:2/4]E,4!fermata!C,4 | 
F,F,2F, F,2F,2 | 
F,8 | 
z4F,3C | 
C8 ||  
[M:3/4]B,B,2A, A,3F, A,3B, ||  
[M:2/4]B,8 ||  
[M:3/4]A,A,2F, F,3E,F,4 ||  
[M:2/4]F,2F,F,F,4 | 
F,F,2F, E,3C, ||  
[M:3/4]F,3F,F,4z4 ||  
[M:2/4]E,4!fermata!C,4 | 
F,F,2F, F,2F,2 ||  
[M:3/4]F,4z3 A, A,3B, ||  
[M:2/4]B,8 ||  
[M:3/4]A,A,2F, F,3E,F,4 ||  
[M:2/4]F,2F,F,F,4 | 
F,F,2F, E,3C, ||  
[M:3/4]F,3F,F,4z4 ||  
[M:2/4]E,4C,4 | 
F,F,2F, F,2F,2 | 
F,8 |]  



